usr/share/icons/biglinux-icons-material-dark/symbolic/status/input-touchpad-off-symbolic.svg

<svg viewBox="0 0 22 22" xmlns="http://www.w3.org/2000/svg"><style type="text/css" id="current-color-scheme">.ColorScheme-Text{color:#232629;}.ColorScheme-NegativeText{color:#da4453;}</style><path d="m5.0175781 3 1 1h11.9824219v11.984375l1 1v-13.984375zm-2.0175781 2.015625v13.984375h13.984375l-1-1h-11.984375v-11.984375zm2 9.984375v2h5v-2zm7 0v2h2.984375l-2-2z" style="fill:currentColor;fill-opacity:1;stroke:none" class="ColorScheme-Text"/><path d="m-.49999994 4.7426407h1v21.6274173h-1z" style="fill:currentColor;fill-opacity:1;stroke:none" class="ColorScheme-NegativeText" transform="matrix(.70710678 -.70710678 .70710678 .70710678 0 0)"/></svg>

<svg xmlns="http://www.w3.org/2000/svg" viewBox="0 0 22 22">
<style id="current-color-scheme" type="text/css">
.ColorScheme-Contrast{color:#232629}.ColorScheme-NegativeText{color:#da4453}
</style>
<path d="m5.018 3 1 1H18v11.984l1 1V3zM3 5.016V19h13.984l-1-1H4V6.016zM5 15v2h5v-2zm7 0v2h2.984l-2-2z" class="ColorScheme-Contrast" style="fill:currentColor;fill-opacity:1;stroke:none"/>
<path d="M-.5 4.743h1V26.37h-1z" class="ColorScheme-NegativeText" style="fill:currentColor;fill-opacity:1;stroke:none" transform="rotate(-45)"/>
</svg>
